rospo-light/16x16/actions/document-save-as.svg

<svg height="16" viewBox="0 0 16 16" width="16" xmlns="http://www.w3.org/2000/svg"><path d="m5.9902344 1.0195312.0097656 6h-2.3417969l3.3398438 4.8613278v-1.9863278c0-1.0105999.90116-1.84375 1.875-1.84375h2.7832031l.716797-1.03125h-2.3750001l-.0097657-6zm2.890625 8.03125c-.49245 0-.875.3555901-.875.84375v5.2187498c0 .48816.38255.84375.875.84375h6.2499996c.49245 0 .875-.35559.875-.84375v-5.2187498c0-.4881599-.38255-.84375-.875-.84375zm1.1249996.9687498h3v1h-1v3h1v1h-3v-1h1v-3h-1zm-9.005859 4.011719v1.96875h6.2578125c-.15641-.26492-.2558594-.564459-.2558594-.886719v-1.082031z" fill="#5c616c"/></svg>

<?xml version="1.0" encoding="UTF-8" standalone="no"?>
<svg xmlns="http://www.w3.org/2000/svg" width="22" height="22" viewBox="0 0 22 22">
 <defs>
  <style type="text/css" id="current-color-scheme">
   .ColorScheme-Text { color:#5c616c; } .ColorScheme-Highlight { color:#5294e2; }
  </style>
 </defs>
 <path style="fill:currentColor;opacity:1" class="ColorScheme-Text" transform="translate(3 3)" d="M 5.9902344 1.0195312 L 6 7.0195312 L 3.6582031 7.0195312 L 6.9980469 11.880859 L 6.9980469 9.8945312 C 6.9980469 8.8839313 7.8992069 8.0507812 8.8730469 8.0507812 L 11.65625 8.0507812 L 12.373047 7.0195312 L 9.9980469 7.0195312 L 9.9882812 1.0195312 L 5.9902344 1.0195312 z M 8.8808594 9.0507812 C 8.3884094 9.0507812 8.0058594 9.4063713 8.0058594 9.8945312 L 8.0058594 15.113281 C 8.0058594 15.601441 8.3884094 15.957031 8.8808594 15.957031 L 15.130859 15.957031 C 15.623309 15.957031 16.005859 15.601441 16.005859 15.113281 L 16.005859 9.8945312 C 16.005859 9.4063713 15.623309 9.0507812 15.130859 9.0507812 L 8.8808594 9.0507812 z M 10.005859 10.019531 L 13.005859 10.019531 L 13.005859 11.019531 L 12.005859 11.019531 L 12.005859 14.019531 L 13.005859 14.019531 L 13.005859 15.019531 L 10.005859 15.019531 L 10.005859 14.019531 L 11.005859 14.019531 L 11.005859 11.019531 L 10.005859 11.019531 L 10.005859 10.019531 z M 1 14.03125 L 1 16 L 7.2578125 16 C 7.1014025 15.73508 7.0019531 15.435541 7.0019531 15.113281 L 7.0019531 14.03125 L 1 14.03125 z"/>
</svg>
